!!!COM:	Bach, Johann Sebastian
!!!CDT:	1685/02/21/-1750/07/28/
!!!OTL@@DE:	Du Friedef&uuml;rst, Herr Jesu Christ
!!!SCT:	BWV 67/7
!!!PC#:	42
!!!AGN:	chorale
**harm	**kern	**kern	**kern	**kern
*	*ICvox	*ICvox	*ICvox	*ICvox
*	*Ibass	*Itenor	*Ialto	*Isoprn
*	*I"Bass	*I"Tenor	*I"Alto	*I"Soprano
*>[A,A,B]	*>[A,A,B]	*>[A,A,B]	*>[A,A,B]	*>[A,A,B]
*>norep[A,B]	*>norep[A,B]	*>norep[A,B]	*>norep[A,B]	*>norep[A,B]
*>A	*>A	*>A	*>A	*>A
*	*	*oclefC4	*oclefC3	*oclefC1
*	*clefF4	*clefGv2	*clefG2	*clefG2
*k[f#c#g#]	*k[f#c#g#]	*k[f#c#g#]	*k[f#c#g#]	*k[f#c#g#]
*A:	*A:	*A:	*A:	*A:
*M4/4	*M4/4	*M4/4	*M4/4	*M4/4
*met(c)	*met(c)	*met(c)	*met(c)	*met(c)
*MM100	*MM100	*MM100	*MM100	*MM100
I	4A	4e	4a	4cc#
=1	=1	=1	=1	=1
IV	4d	4d	4f#	4a
viio6	4B	4d	4g#	4b
I	4A	4e	4a	4cc#
V6	4G#	4e	4b	4ee
=2	=2	=2	=2	=2
IV6	4F#	4f#	4a	4dd
V65	4G#	4e	4b	4dd
I;	4A;	4e;	4a;	4cc#;
I6	4C#	4e	4a	4ee
=3	=3	=3	=3	=3
IV6	4F#L	4f#	4a	4dd
I	4A	4e	4a	4cc#
ii65	4D	4f#	4a	4b
V	4E	4e	4g#	4b
=4	=4	=4	=4	=4
I;	2.AA;	2.e;	2.a;	2.cc#;
=:|!	=:|!	=:|!	=:|!	=:|!
*>B	*>B	*>B	*>B	*>B
V	4E	4e	4g#	4b
=5	=5	=5	=5	=5
V6	4G#	4B	4e	4b
V	4E	4e	4g#	4b
I	4A	4e	4a	4cc#
V7	4E	4d	4g#	4b
=6	=6	=6	=6	=6
vi	4F#	4c#	4f#	4a
viio6	4BB	4d	4g#	4b
f#:V;	4C#;	4c#;	4e#;	4g#;
V	4C#	4c#	4e#	4g#
=7	=7	=7	=7	=7
i	4F#	4c#	4f#	4a
A:V	4E	4enX	4g#	4b
I	4A	4e	4a	4cc#
V6	4G#	4e	4e	4b
=8	=8	=8	=8	=8
IV6	4F#	4d	4a	4dd
I64	4E	4e	4a	4cc#
ii65	4D	4f#	4a	4b
V7	4E	4d	4g#	4b
=9	=9	=9	=9	=9
I;	2.AA;	2.c#;	2.e;	2.a;
==	==	==	==	==
*-	*-	*-	*-	*-
!!!YOR1: 371 vierstimmige Choralges&auml;nge von Johann Sebastian Bach, 
!!!YOR2: 4th ed. by Alfred D&ouml;rffel (Leipzig: Breitkopf und H&auml;rtel, 
!!!YOR2: c.1875). 178 pp. Plate "V.A.10".  reprint: J.S. Bach, 371 Four-Part 
!!!YOR4: Chorales (New York: Associated Music Publishers, Inc., c.1940).
!!!SMS: B&H, 4th ed, Alfred D&ouml;rffel, c.1875, plate V.A.10
!!!EED:  Craig Stuart Sapp
!!!EEV:  2009/05/22
